X:1
T:On a fair morning - Morley
T:James Gibb editions
T:#
%%score [ 1 2 3 4 ]
L:1/8
Q:1/4=108
M:4/4
K:F
V:1 treble nm="Soprano" snm="S"
V:2 treble nm="Alto" snm="A"
V:3 bass nm="Bass I" snm="B I"
V:4 bass nm="Bass II" snm="B II"
V:1
 AB | c3 c c2"^On a fair morning" c2 | d2 d2 d2 d>e | f2 e (d2 c A2) | %4
w: On a|fair, a fair, a|fair morn- ing, as I|came by the * *|
"^Thomas Morley\n(1557-1603)" =B4 z4 |[M:4/4] B3 c d>c d>e | ff d2 z4 | F3 G A>G A>B | cc A4 cc | %9
w: way,|met I with a mer- ry,|mer- ry maid,|met I with a mer- ry,|mer- ry maid, in the|
 =B2 c2 c2 B2 | c4 z2 cc | d2 c2 B2 G2 | A8 | z4 z2 cc | d3 d f2 d2 | B4 z2 _e2 | d2 c2 B>A GB | %17
w: mer- ry month of|May, in the|mer- ry month of|May.|When a|sweet, a sweet love|sings his|love- ly, love- ly, love- ly|
 A4 z2 c2 | c3 d _e2 c2 | f2 _e2 d2 d2 | c2 B2 B2 A2 | B4 z2 Bc | d3 d d2 d2 | d>c B>A G2 _E>F | %24
w: lay, And|eve- ry bird up-|on the bush be-|chirps it up so|gay, with an|heave and ho, with|heave, an heave and ho, with an|
 G (A B2) G2 cd | _e3 e e2 cd | _e>d c>B A2 z2 | z2 FF f3 f | f2 de f>e dc | =B2 cc c2 B2 | %30
w: heave and * ho, with an|heave and ho, with an|heave, an heave and ho,|with an heave and|ho, with an heave, an heave and|ho, with an heave and|
 c2 c2 A>G A>B | c2 BA G4 | z2 c2 A>G AB | c2 BA G4 | z2 c2 A>A F2 | A>B c2 d>e f2 | d4 z2 f2 | %37
w: ho, thy wife will be thy|mas- ter I trow,|thy wife will be thy|mas- ter I trow:|Sing care a- way,|care a- way, let the world|go, Hey|
 d>d B2 d>e f2 | e>d e2 f3 e/d/ | c2 EF G4 | G4 z4 | %41
w: lust- i- ly, lust- i- ly|all in a row, in a|row, all in a|row:|
 z2[Q:1/4=106] c2[Q:1/4=104] A>[Q:1/4=102]A[Q:1/4=101] F2 | %42
w: Sing care a- way,|
[Q:1/4=98] A>[Q:1/4=97]B[Q:1/4=96] c2[Q:1/4=93] d>[Q:1/4=92]d[Q:1/4=91] c2 |[Q:1/4=90] c8 |] %44
w: care a- way, let the world|go.|
V:2
 FG | A3 A A2 A2 | B2 B2 B2 BB | A2 G4 ^F2 | G4 G,>A, B,>C |[M:4/4] D>C D>E F>F D2 | z4 F3 G | %7
w: On a|fair, a fair, a|fair morn- ing, as I|came by the|way, met I with a|mer- ry, mer- ry, mer- ry maid,|met I|
 A>G A>B cc A2 | A2 FF F2 AA | G2 F2 G2 G2 | G4 z2 A>A | G>F F4 E2 | F8 | z4 z2 AA | B3 A B>A B>c | %15
w: with a mer- ry, mer- ry maid,|a mer- ry maid, in the|mer- ry month of|May, in the|mer- ry month of|May.|When a|sweet, a sweet, a sweet, a|
 d2 B2 B2 G2 | _A2 G F2 (G E2) | F4 z2 _A2 | _A3 B c2 A2 | c2 c2 B2 B2 | G2 _E2 F2 F2 | F4 z2 FF | %22
w: sweet love sings his|love- ly, love- ly *|lay, and|eve- ry bird up-|on the bush be-|chirps it up so|gay, with an|
 B3 B B2 B2 | F2 GA B3 B | B2 G2 B>_A G>F | _E3 F G2 _AB | c3 c c2 A2 | c>B A>G F3 G | %28
w: heave and ho, an|ho, with an heave and|ho, with heave, an heave and|ho, with an heave and|ho, and ho, with|heave, an heave, an heave and|
 A2 GG G2 ^F2 | G2 EF G2 G2 | G4 z2 c2 | A>G AB c2 BA | G4 z2 c2 | A>G AB c2 BA | G2 E2 F>F C2 | %35
w: ho, with an heave and|ho, with an heave and|ho, thy|wife will be thy mas- ter I|trow, thy|wife will be thy mas- ter I|trow, Sing care a- way,|
 F>G A2 Bc d2 | B2 d2 cc A2 | BB F2 BBA (B | c2) c2 A>A F2 | A>B c2 =BA B2 | c2 G>A (B>A) G>(F | %41
w: care a- way, let the world|go, sing care a- way|care a- way let the world go,|* Hey lust- i- ly,|lust- i- ly all in a|row, lust- i- ly * all in|
 G) (A G2) F2 C2 | F>G A2 BB G2 | A8 |] %44
w: * a * row: Sing|care a- way, let the world|go.|
V:3
 C,C, | F,3 F, F,2 F,2 | F,2 F,2 F,2 F,F, | F,2 B,,2 C,4 | D,4 D,D, G,2- | %5
w: On a|fair, a fair, a|fair morn- ing, as I|came by the|way, met I with|
[M:4/4] G,2 F,2 B,B, F,2 | D,>C, D,E, F,F, C,2- | C,2 C,C, C,C, C,2- | C,2 C,C, C,2 F,F, | %9
w: * a mer- ry maid,|met I with a mer- ry maid,|* with a mer- ry maid,|* mer- ry maid, in the|
 D,2 C,2 D,2 D,2 | E,4 z2 F,F, | D,2 F,2 D,2 B,,2 | C,8 | z4 z2 F,F, | F,3 F, D,2 F,2 | %15
w: mer- ry month of|May, in the|mer- ry month of|May.|When a|sweet, a sweet, a|
 F,2 D,2 G,2 G,2 | F,>_E, D,>C, (E,>D,) B,,2 | C,4 z2 F,2 | _E,3 E, _A,2 E,2 | _A,2 G,2 F,2 F,2 | %20
w: sweet love sings his|love- ly, love- ly, love\- * ly|lay, And|eve- ry Bird up-|on the bush be-|
 (_E,>D,) (C,B,,) C,2 C,2 | D,4 z2 D,_E, | F,3 F, F,2 F,2 | D,>F, C,D, _E,2 B,,B,, | %24
w: chirps * it * up so|gay, with an|heave and ho, with|heave, an heave and ho, with an|
 _E,3 E, E,2 E,2 | G,>_A, B,A, G,2 F,F, | F,2 !courtesy!=E,2 F,2 F,F, | A,>B, C>B, A,3 G, | %28
w: heave and ho, with|heave an heave and ho, with an|heave and ho, with an|heave, an heave and ho, an|
 F,2 B,B, A,2 A,2 | G,2 C,C, D,2 D,2 | E,2 E,2 F,3 F, | F,2 F,2 E,2 E,E, | E,2 E,2 F,3 F, | %33
w: ho, with an heave and|ho, with an heave and|ho, thy wife will|be thy mas- ter I|trow, thy wife will|
 F,2 F,2 E,2 E,E, | E,2 C,2 C,C, A,,2 | C,C, F,2 F,F, F,2 | F,2 B,2 A,A, F,2 | F,F, D,2 F,F, F,2 | %38
w: be thy mas- ter I|trow Sing care a- way,|care a- way, let the world|go, Hey lust- i- ly,|lust- i- ly all in a|
 G,2 G,2 F,F, C,2 | C,C, C,2 D,2 G,2 | E,E, C,2 D,>E, F,2 | E,>D, E,2 F,2 A,,2 | %42
w: row, Hey lust- i- ly|all in a row: Sing|care a- way, care a- way,|let the world go, Sing;|
 C,C, F,2 F,F, E,2 | F,8 |] %44
w: care a- way, let the world|go.|
V:4
 F,F, | F,3 F, F,2 F,2 | B,2 B,2 B,2 B,2 | F,2 G,2 A,2 A,2 | G,4 z4 |[M:4/4] B,3 B, B,B,B,B, | %6
w: On a|fair, a fair, a|fair morn- mg, as|I came by the|way,|met I with a mer- ry,|
 B,B, B,2 F,3 F, | F,F,F,F, F,F, F,2- | F,2 F,F, F,2 F,F, | G,2 A,2 G,2 G,2 | C,4 z2 F,F, | %11
w: mer- ry maid, met I|with a mer- ry, mer- ry maid,|* mer- ry maid, in the|mer- ry month of|May, in the|
 B,2 A,2 G,2 G,2 | F,8 | z4 z2 F,F, | B,3 B, B,2 B,2 | B,2 B,2 _E,2 E,2 | F,2 _A,2 G,2 G,2 | %17
w: mer- ry month of|May.|When a|sweet, a sweet, a|sweet love sings his|love- ly, love- ly|
 F,4 z2 F,2 | _A,3 A, A,2 A,2 | _A,2 A,2 B,2 B,2 | _E,2 G,2 F,2 F,2 | B,,4 z2 B,B, | %22
w: lay, And|eve- ry Bird up-|on the bush be-|chirps it up so|gay, with an|
 B,3 B, B,2 B,2 | B,_A,G,F, _E,2 E,E, | _E,3 E, E,2 E,2 | _E,E,E,E, E,2 F,F, | C,2 C,2 F,2 F,F, | %27
w: heave, an heave, an|heave, an heave and ho, with an|heave, an heave, an|heave an heave and ho, with an|heave and ho, with an|
 F,3 F, F,2 F,2 | F,2 G,G, D,2 D,2 | G,2 A,A, G,2 G,2 | C,2 C,2 F,3 F, | F,2 F,2 C,2 C,C, | %32
w: heave, an heave and|ho, with an heave and|ho, with an heave and|ho, thy wife will|be thy mas- ter I|
 C,2 C,2 F,3 F, | F,2 F,2 C,2 C,C, | C,2 C,2 F,F, F,2 | F,F, F,2 B,B, B,2 | B,2 B,2 F,F, F,2 | %37
w: trow, thy wife will|be thy mas- ter I|trow, Sing care a- way,|care a- way, let the world|go, sing care a- way|
 B,,B,, B,,2 B,,C, D,2 | C,2 C,2 F,F, F,2 | F,G, A,2 G,F, G,2 | C,4 B,,2 D,2 | C,4 F,2 F,2 | %42
w: care a- way let the world|go, Hey lust- i- ly,|lust- i- ly all in a|row, all in|a row: Sing|
 F,F, F,2 B,,B,, C,2 | F,8 |] %44
w: care a- way, let the world|go.|

